!!!!SEGMENT: pl-kk--kk-i-397--005_kaspar--missa-benedictus.krn
!!!cenid: 18xx:1450
!!!COM: Kaspar
!!!COM-rismid: pe30048142
!!!CDT:
!!!CNT:
!!!OPR: Missa
!!!OTL: Benedictus
!!!OMV: 005
!!!PDT: 1856
!!!AGN: Sacred; Mass
!!!SMS-siglum: PL-Kk
!!!SMS-shelfmark: Kk.I.397
!!!SMS-shelfwork: 001-005 M
!!!SMS-variant: Sopran PL-Kk Kk.I.397:0015 ; Alt. PL-Kk Kk.I.397:0020 ; Tenor. PL-Kk Kk.I.397:0025 ; Bas. PL-Kk Kk.I.397:30
!!!SMS-altvar: Partytura PL-Kk Kk.I.397:0009
!!!NIFC-rismid: 1001139936
!!!URL-scan: http://repozytorium.nifc.pl/skany/pl-kk-nut--i-397
!!!ONB-nifc: UWAGA: na podstawie głosów. Proszę uzupełnić pola !!!SMS dot. partytury i głosów. Uwaga: części Mszy: 1. Kyrie, 2. Gloria, 3. Credo, 4. Sanctus, 5. Benedictus, 6. Agnus
**kern	**text	**dynam	**kern	**text	**dynam	**kern	**text	**dynam	**kern	**text	**dynam
*part4	*part4	*part4	*part3	*part3	*part3	*part2	*part2	*part2	*part1	*part1	*part1
*staff4	*staff4	*	*staff3	*staff3	*	*staff2	*staff2	*	*staff1	*staff1	*
*I"Bas.	*	*	*I"Tenor.	*	*	*I"Alt.	*	*	*I"Sopran	*	*
*I'B	*	*	*I'T	*	*	*I'A	*	*	*I'S	*	*
*clefF4	*	*	*clefC4	*	*	*clefC3	*	*	*clefC1	*	*
*k[b-]	*	*	*k[b-]	*	*	*k[b-]	*	*	*k[b-]	*	*
*F:	*	*	*F:	*	*	*F:	*	*	*F:	*	*
*M3/4	*	*	*M3/4	*	*	*M3/4	*	*	*M3/4	*	*
=1	=1	=1	=1	=1	=1	=1	=1	=1	=1	=1	=1
*all\right	*	*	*all\right	*	*	*all\right	*	*	*all\right	*	*
*2\right	*	*	*	*	*	*	*	*	*	*	*
!LO:TX:a:t=andante	!	!	!LO:TX:a:t=andante	!	!	!LO:TX:a:t=andant	!	!	!LO:TX:a:t=Andante	!	!LO:DY:rj
2F\	be-	.	(4A\	be-	.	(4c\	be-	p	2f/	be-	p
.	.	.	4B-\)	.	.	4d\)	.	.	.	.	.
4F\	-ne-	.	4A\	-ne-	.	4c\	-ne-	.	4f/	-ne-	.
=2	=2	=2	=2	=2	=2	=2	=2	=2	=2	=2	=2
4FF/	-dic-	.	4c\	-dic-	.	4f\	-dic-	.	4a\	-di-	.
8F\	-tus	.	8A\	-tus	.	8f\	-tus	.	8f/	-ctus	.
8r	.	.	8r	.	.	8r	.	.	8r	.	.
4r	.	.	4r	.	.	4r	.	.	4r	.	.
=3	=3	=3	=3	=3	=3	=3	=3	=3	=3	=3	=3
(4D\	be-	.	2d\	be-	.	(4f\	be-	.	(4a\	be-	.
4AA/)	.	.	.	.	.	4f#X\)	.	.	4cc\)	.	.
4BB-/	-ne-	.	4d-X\	-ne-	.	4g\	-ne-	.	4b-\	-ne-	.
=4	=4	=4	=4	=4	=4	=4	=4	=4	=4	=4	=4
4C/	-dic-	.	4c\	-dic-	.	4fn\	-dic-	.	4a\	-di-	.
8C/	-tus	.	8c\	-tus	.	8e\	-tus	.	8g\	-ctus	.
8r	.	.	8r	.	.	8r	.	.	8r	.	.
4r	.	.	4r	.	.	4r	.	.	(8f/L	qui	.
.	.	.	.	.	.	.	.	.	8a/J)	.	.
=5	=5	=5	=5	=5	=5	=5	=5	=5	=5	=5	=5
*	*	*	*	*	*	*	*	*	*2\right	*	*
2.r	.	.	4r	.	.	4r	.	.	[2.cc\	ve-	.
.	.	.	4r	.	.	4r	.	.	.	.	.
.	.	.	4A\	qui	.	4f\	qui	.	.	.	.
=6	=6	=6	=6	=6	=6	=6	=6	=6	=6	=6	=6
4r	.	.	4A\	ve-	.	4f\	ve-	.	2.cc\_	.	.
4r	.	.	(8G\L	.	.	(8e\L	.	.	.	.	.
.	.	.	8A\	.	.	8f\	.	.	.	.	.
8.C/	be-	.	8B-\	.	.	8g\	.	.	.	.	.
.	.	.	8c\J	.	.	8a\J	.	.	.	.	.
16C/	-ne-	.	.	.	.	.	.	.	.	.	.
!	!	!	!	!	!	!	!	!	!LO:LB:g=original	!	!
=7	=7	=7	=7	=7	=7	=7	=7	=7	=7	=7	=7
4F\	-dic-	.	4B-\	.	.	4g\	.	.	4cc\]	.	.
8FF/	-tus	.	8A\)	-nit	.	8f\)	-nit	.	8cc\	-nit	.
8r	.	.	8r	.	.	8r	.	.	8r	.	.
4r	.	.	(8F/L	qui	.	4f\	qui	.	4a\	qui	.
.	.	.	8A/J)	.	.	.	.	.	.	.	.
!LO:LB:g=original	!	!	!	!	!	!	!	!	!	!	!
=8	=8	=8	=8	=8	=8	=8	=8	=8	=8	=8	=8
*	*	*	*2\right	*	*	*	*	*	*	*	*
4r	.	.	[2.c\	ve-	.	4f\	ve-	.	(4a\	ve-	.
4r	.	.	.	.	.	(8e\L	.	.	8g\L	.	.
.	.	.	.	.	.	8f\	.	.	8a\	.	.
8.C/	be-	.	.	.	.	8g\	.	.	8b-\	.	.
.	.	.	.	.	.	8a\J)	.	.	8cc\J	.	.
16C/	-ne-	.	.	.	.	.	.	.	.	.	.
!	!	!	!	!	!	!LO:LB:g=original	!	!	!	!	!
=9	=9	=9	=9	=9	=9	=9	=9	=9	=9	=9	=9
4F\	-di-	.	8c\L]	.	.	4g\	.	.	4b-\)	.	.
.	.	.	8e\J	.	.	.	.	.	.	.	.
8FF/	-ctus	.	8f\	-nit	.	8f\	-nit	.	8a\	-nit	.
8r	.	.	8r	.	.	8r	.	.	8r	.	f
8.A\	be-	.	8.c\	be-	.	8.f\	be-	.	8.cc\	be-	.
16A\	-ne-	.	16c\	-ne-	.	16f\	-ne-	.	16cc\	-ne-	.
!	!	!	!LO:LB:g=original	!	!	!	!	!	!	!	!
=10	=10	=10	=10	=10	=10	=10	=10	=10	=10	=10	=10
4G#X\	-dic-	.	4d\	-dic-	.	4f\	-dic-	.	4bn\	-di-	.
4A\	-tus	.	4c\	-tus	.	4e\	-tus	.	4cc\	-ctus,	.
4F\	qui	.	4A\	qui	.	4d\	qui	.	4dd\	qui	.
=11	=11	=11	=11	=11	=11	=11	=11	=11	=11	=11	=11
4Gn\	ve-	.	4B-X\	ve-	.	4e\	ve-	.	4cc#X\	ve-	.
4F\	-nit	.	4A\	-nit	.	4d\	-nit	.	4dd\	-nit	.
4D\	in	.	4A\	in	.	4f\	in	.	4dd\	in	.
!	!	!	!	!	!	!	!	!	!LO:LB:g=original	!	!
=12	=12	=12	=12	=12	=12	=12	=12	=12	=12	=12	=12
2D\	no-	.	(8A\L	no-	.	(8f\L	no-	.	2ff\	no-	.
.	.	.	8Bn\	.	.	8g\	.	.	.	.	.
.	.	.	8c\	.	.	8a\	.	.	.	.	.
.	.	.	8d\J)	.	.	8bn\J)	.	.	.	.	.
8E\	-mi-	.	8c\	-mi-	.	8cc\	-mi-	.	8ee\	-mi-	.
8F\	-ne	.	8f\	-ne	.	8a\	-ne	.	8dd\	-ne	.
!LO:LB:g=original	!	!	!	!	!	!	!	!	!	!	!
=13	=13	=13	=13	=13	=13	=13	=13	=13	=13	=13	=13
(2.G\	Do-	.	4e\	do-	.	4g\	do-	.	[2.cc\	do-	.
.	.	.	(8d#X\L	.	.	(8f#X\L	.	.	.	.	.
.	.	.	8e\	.	.	8g\	.	.	.	.	.
.	.	.	8f\	.	.	8a\	.	.	.	.	.
.	.	.	8e\J	.	.	8g\J	.	.	.	.	.
=14	=14	=14	=14	=14	=14	=14	=14	=14	=14	=14	=14
2GG/)	.	.	2dn\	.	.	2fn\)	.	.	4cc\]	.	.
.	.	.	.	.	.	.	.	.	8bn\L	.	.
.	.	.	.	.	.	.	.	.	8a\J	.	.
4GG/	-mi-	.	4G/)	-mi-	.	4f\	-mi-	.	4b\	-mi-	.
=15	=15	=15	=15	=15	=15	=15	=15	=15	=15	=15	=15
4C/	-ni	.	4G/	-ni	.	4e\	-ni	.	4cc\	-ni	.
4r	.	.	4r	.	.	4r	.	.	4r	.	.
4r	.	.	4r	.	.	4r	.	.	4r	.	p
!	!	!	!	!	!	!LO:LB:g=original	!	!	!	!	!
=16	=16	=16	=16	=16	=16	=16	=16	=16	=16	=16	=16
2C/	be-	.	(4e\	be-	.	(4g\	be-	.	2cc\	be-	.
.	.	.	4f\)	.	.	4a\)	.	.	.	.	.
4C/	-ne-	.	4e\	-ne-	.	4g\	-ne-	.	4cc\	-ne-	.
=17	=17	=17	=17	=17	=17	=17	=17	=17	=17	=17	=17
*	*	*	*	*	*	*2\right	*	*	*	*	*
2C/	-dic-	.	2c\	-di-	.	2g\	-di-	.	2ee\	-dic-	.
4C/	-tus	.	4e\	-ctus	.	4g\	-ctus	.	4cc\	-tus	.
!	!	!	!LO:LB:g=original	!	!	!	!	!	!	!	!
=18	=18	=18	=18	=18	=18	=18	=18	=18	=18	=18	=18
(4A\	be-	.	(4e\	be-	.	(4a\	be-	.	(4cc\	be-	.
4G\)	.	.	4c#X\)	.	.	4b-X\)	.	.	4ee\)	.	.
4F\	-ne-	.	4d\	-ne-	.	4a\	-ne-	.	4dd\	-ne-	.
!	!	!	!	!	!	!	!	!	!LO:LB:g=original	!	!
=19	=19	=19	=19	=19	=19	=19	=19	=19	=19	=19	=19
4E\	-dic-	.	4e\	-dic-	.	4a\	-dic-	.	4cc\	-dic-	.
8E\	-tus	.	8e\	-tus	.	8g#X\	-tus	.	8bn\	-tus	.
8r	.	.	8r	.	.	8r	.	.	8r	.	.
4r	.	.	4r	.	.	4r	.	.	4r	.	.
=20	=20	=20	=20	=20	=20	=20	=20	=20	=20	=20	=20
(4A\	be-	.	(4e\	be-	.	(4a\	be-	.	(4cc\	be-	.
4G#X\)	.	.	4f\)	.	.	4bn\)	.	.	4dd\)	.	.
4A\	-ne-	.	4e\	-ne-	.	4a\	-ne-	.	4cc\	-ne-	.
!LO:LB:g=original	!	!	!	!	!	!	!	!	!	!	!
=21	=21	=21	=21	=21	=21	=21	=21	=21	=21	=21	=21
4AA/	-di-	.	4c\	-dic-	.	4e\	-dic-	.	4ee\	-dic-	.
8A\	-ctus	.	8e\	-tus	.	8a\	-tus	.	8cc\	-tus	.
8r	.	.	8r	.	.	8r	.	.	8r	.	.
!	!	!	!	!	!LO:DY:t=f	!	!	!	!	!	!
4r	.	f	4r	.	f	4r	.	.	4r	.	f
=22	=22	=22	=22	=22	=22	=22	=22	=22	=22	=22	=22
(4G\	be-	.	4B-X\	be-	.	(4e\	be-	.	2cc\	be-	.
4F#X\)	.	.	4A\	.	.	4d#X\)	.	.	.	.	.
4G\	-ne-	.	4B-\	-ne-	.	4e\	-ne-	.	4cc\	-ne-	.
=23	=23	=23	=23	=23	=23	=23	=23	=23	=23	=23	=23
4C/	-dic-	.	4B-\	-dic-	.	4g\	-dic-	.	4ee\	-dic-	.
8Fn\	-tus	.	8A\	-tus	.	8f\	-tus	.	8ff\	-tus	.
8r	.	.	8r	.	.	8r	.	.	8r	.	.
!	!	!	!	!	!	!	!	!	!	!	!LO:DY:t=p.
4r	.	.	4r	.	.	4r	.	.	(8f\L	qui	p
.	.	.	.	.	.	.	.	.	8a\J)	.	.
!	!	!	!	!	!	!LO:LB:g=original	!	!	!	!	!
=24	=24	=24	=24	=24	=24	=24	=24	=24	=24	=24	=24
!LO:TX:a:t=1	!	!	!	!	!	!	!	!	!	!	!
2.r	.	.	4r	.	.	4r	.	.	[2.cc\	ve-	.
.	.	.	4r	.	.	4r	.	.	.	.	.
.	.	.	4A\	qui	.	4f\	qui	.	.	.	.
!	!	!	!	!	!	!	!	!	!LO:LB:g=original	!	!
=25	=25	=25	=25	=25	=25	=25	=25	=25	=25	=25	=25
4r	.	.	4A\	ve-	.	4f\	ve-	.	2.cc\_	.	.
4r	.	.	(8G\L	.	.	(8e\L	.	.	.	.	.
.	.	.	8A\	.	.	8f\	.	.	.	.	.
8.C/	be-	.	8B-\	.	.	8g\	.	.	.	.	.
.	.	.	8c\J)	.	.	8a\J	.	.	.	.	.
16C/	-n(e)-	.	.	.	.	.	.	.	.	.	.
!	!	!	!LO:LB:g=original	!	!	!	!	!	!	!	!
=26	=26	=26	=26	=26	=26	=26	=26	=26	=26	=26	=26
4F\	-di-	.	4B-\	.	.	4g\)	.	.	4cc\]	.	.
8FF/	-ctus	.	8A\	-nit	.	8f\	-nit	.	8cc\	-nit	.
!	!	!	!	!	!	!	!	!	!	!	!LO:DY:t=p
8r	.	.	8r	.	.	8r	.	.	8r	.	p
4r	.	.	(8F/L	qui	.	4f\	qui	.	4a\	qui	.
.	.	.	8A/J)	.	.	.	.	.	.	.	.
!LO:LB:g=original	!	!	!	!	!	!	!	!	!	!	!
=27	=27	=27	=27	=27	=27	=27	=27	=27	=27	=27	=27
4r	.	.	[2.c\	ve-	.	4f\	ve-	.	4a\	ve-	.
4r	.	.	.	.	.	(8e\L	.	.	(8g\L	.	.
.	.	.	.	.	.	8f\	.	.	8a\	.	.
8.C/	be-	.	.	.	.	8g\	.	.	8b-\	.	.
.	.	.	.	.	.	8a\J	.	.	8cc\J	.	.
16C/	-ne-	.	.	.	.	.	.	.	.	.	.
=28	=28	=28	=28	=28	=28	=28	=28	=28	=28	=28	=28
4F\	-dic-	.	8c\L]	.	.	4g\	.	.	4b-\)	.	.
.	.	.	8e\J	.	.	.	.	.	.	.	.
8FF/	-tus	.	8f\	-nit	.	8f\)	-nit	.	8a\	-nit	.
8r	.	.	8r	.	.	8r	.	.	8r	.	.
(8F\L	qui	.	4A\	qui	.	8a\L	qui	.	4cc\	qui	.
8E\J)	.	.	.	.	.	8g\J	.	.	.	.	.
=29	=29	=29	=29	=29	=29	=29	=29	=29	=29	=29	=29
[2.D\	ve-	.	4A\	ve-	.	[2.f\	ve-	.	(4cc\	ve-	.
.	.	.	(8d\L	.	.	.	.	.	8ff\L	.	.
.	.	.	8c\	.	.	.	.	.	8ee\	.	.
.	.	.	8B-\	.	.	.	.	.	8dd\	.	.
.	.	.	8A\J)	.	.	.	.	.	8cc\J)	.	.
=30	=30	=30	=30	=30	=30	=30	=30	=30	=30	=30	=30
(4D\]	.	.	2G/	-nit	.	4f\]	.	.	2b-\	-nit	.
8G\L	.	.	.	.	.	(8b-\L	.	.	.	.	.
8F\	.	.	.	.	.	8a\	.	.	.	.	.
8E\	.	.	4G/	qui	.	8g\	.	.	4b-\	qui	.
8D\J	.	.	.	.	.	8f\J	.	.	.	.	.
!	!	!	!	!	!	!	!	!	!LO:LB:g=original	!	!
=31	=31	=31	=31	=31	=31	=31	=31	=31	=31	=31	=31
[>2.C/)	.	.	4G/	ve-	.	[2.e\)	.	.	(4b-\	ve-	.
.	.	.	(8c\L	.	.	.	.	.	8ee\L	.	.
.	.	.	8B-\	.	.	.	.	.	8dd\	.	.
.	.	.	8A\	.	.	.	.	.	8cc\	.	.
.	.	.	8G\J)	.	.	.	.	.	8b-\J)	.	.
!	!	!	!	!	!	!LO:LB:g=original	!	!	!	!	!
=32	=32	=32	=32	=32	=32	=32	=32	=32	=32	=32	=32
4C/]	.	.	2F/	-nit	.	4e\]	-e-	.	2a\	-nit	.
(8F\L	-nit	.	.	.	.	(8a\L	.	.	.	.	.
8E\)	.	.	.	.	.	8g\	.	.	.	.	.
(8D\	qui	.	4F/	qui	.	8f\	.	.	4a\	qui	.
8C\J)	.	.	.	.	.	8e\J	.	.	.	.	.
=33	=33	=33	=33	=33	=33	=33	=33	=33	=33	=33	=33
(4BB-/	ve-	.	&(8B-\L	ve-	.	4d\	.	.	(4dd\	ve-	.
.	.	.	(8A\J	.	.	.	.	.	.	.	.
4C/	.	.	4G\&)	.	.	4e\	.	.	4cc\	.	.
4D/)	.	.	8F\L	.	.	4f\)	.	.	4bn\	.	.
.	.	.	8f\J	.	.	.	.	.	.	.	.
!LO:LB:g=original	!	!	!	!	!	!	!	!	!	!	!
=34	=34	=34	=34	=34	=34	=34	=34	=34	=34	=34	=34
4E\	.	.	8e\L	.	.	4g\	.	.	4b-X\)	.	.
.	.	.	8d\J)	.	.	.	.	.	.	.	.
4F\	-nit	.	4c\	-nit	.	4f\	-nit	.	4a\	-nit	.
4D-X\	in	.	4Bn\	in	.	4f\	in	.	4g#X\	in	.
!	!	!	!LO:LB:g=original	!	!	!	!	!	!	!	!
=35	=35	=35	=35	=35	=35	=35	=35	=35	=35	=35	=35
2C/	no-	.	2c\	no-	.	8f\L	no-	.	(8a\L	no-	.
.	.	.	.	.	.	8g\	.	.	8b-\	.	.
.	.	.	.	.	.	8a\	.	.	8cc\	.	.
.	.	.	.	.	.	8b-\J	.	.	8dd\J)	.	.
8C/	-mi-	.	8B-X\	-mi-	.	8g\	-mi-	.	8ee\	-mi-	.
8C/	-no	.	8A\	-ne	.	8f\	-ne	.	8ff\	-ne	.
=36	=36	=36	=36	=36	=36	=36	=36	=36	=36	=36	=36
4C/	no-	.	4A\	no-	.	4f\	no-	.	4cc\	no-	.
4C/	-mi-	.	(8B-\L	-mi-	.	(8e\L	-mi-	.	(8dd\L	-mi-	.
.	.	.	8A\J)	.	.	8f\J)	.	.	8cc\J)	.	.
4C/	-ne	.	(8E/L	-ne	.	(8g\L	-ne	.	(8b-\L	-ne	.
.	.	.	8F/J)	.	.	8f\J)	.	.	8a\J)	.	.
=37	=37	=37	=37	=37	=37	=37	=37	=37	=37	=37	=37
2C/	Do-	.	2c\	Do-	.	(4f\	do-	.	(4a\	do-	.
.	.	.	.	.	.	4g\)	.	.	4b-\)	.	.
4C/	-mi-	.	4B-\	-mi-	.	4e\	-mi-	.	4g\	-mi-	.
!	!	!	!	!	!	!	!	!	!LO:LB:g=original	!	!
=38	=38	=38	=38	=38	=38	=38	=38	=38	=38	=38	=38
4F\	-ni	.	4A\	-ni	.	4f\	-ni	.	4f/	-ni	.
4r	.	.	4r	.	.	4r	.	.	4r	.	.
4r	.	.	4r	.	.	4r	.	.	8.f\	be-	.
.	.	.	.	.	.	.	.	.	16a\	-ne-	.
!	!	!	!	!	!	!LO:LB:g=original	!	!	!	!	!
=39	=39	=39	=39	=39	=39	=39	=39	=39	=39	=39	=39
2.r	.	.	4r	.	.	4r	.	.	[2.cc\	-di-	.
.	.	.	4r	.	.	4r	.	.	.	.	.
.	.	.	8.A\	be-	.	8.f\	be-	.	.	.	.
.	.	.	16A\	-ne-	.	16f\	-ne-	.	.	.	.
!LO:LB:g=original	!	!	!	!	!	!	!	!	!	!	!
=40	=40	=40	=40	=40	=40	=40	=40	=40	=40	=40	=40
4r	.	.	(4A\	-di-	.	(4f\	-di-	.	2.cc\]	.	.
4r	.	.	4B-\	.	.	4g\	.	.	.	.	.
8.C/	be-	.	4G\)	.	.	4e\)	.	.	.	.	.
16C/	-ne-	.	.	.	.	.	.	.	.	.	.
=41	=41	=41	=41	=41	=41	=41	=41	=41	=41	=41	=41
4F\	-di-	.	2A\	-ctus	.	2f\	-ctus	.	2cc\	-ctus	.
8FF/	-ctus	.	.	.	.	.	.	.	.	.	.
8r	.	.	.	.	.	.	.	.	.	.	.
8.FF/	be-	.	4r	.	.	4r	.	.	4r	.	.
16AA/	-ne-	.	.	.	.	.	.	.	.	.	.
=42	=42	=42	=42	=42	=42	=42	=42	=42	=42	=42	=42
[>2.C/	-di-	.	4r	.	.	4r	.	.	4r	.	.
.	.	.	4r	.	.	4r	.	.	4r	.	p
!	!	!	!LO:TX:t=P:problem:zapis poprawiany	!	!	!	!	!	!	!	!
.	.	.	8.F\	be-	.	8.c\	be-	.	8.a\	be-	.
.	.	.	16F\	-ne-	.	16c\	-ne-	.	16a\	-ne-	.
!	!	!	!LO:LB:g=original	!	!	!	!	!	!	!	!
=43	=43	=43	=43	=43	=43	=43	=43	=43	=43	=43	=43
4C/]	.	.	4F\	-dic-	.	4c\	-dic-	.	4a\	-di-	.
4C/	-ctus	.	4G\	-tus	.	4c\	-tus	.	8cc\L	-ctus	.
.	.	.	.	.	.	.	.	.	8b-\J	.	.
8.C/	be-	.	8.B-\	e-	.	8.c\	be-	.	8.g\	be-	.
16C/	-ne-	.	16B-\	-ne-	.	16c\	-ne-	.	16e/	-ne-	.
=44	=44	=44	=44	=44	=44	=44	=44	=44	=44	=44	=44
(2F\	-di-	.	2.B-\	-di-	.	2.c\	-di-	.	2.e/	-di-	.
4C\)	.	.	.	.	.	.	.	.	.	.	.
=45	=45	=45	=45	=45	=45	=45	=45	=45	=45	=45	=45
2FF\ 2F	-ctus	.	2A\	-ctus	.	2c\	-ctus	.	2f/	-ctus	.
4r	.	.	4r	.	.	4r	.	.	4r	.	.
==	==	==	==	==	==	==	==	==	==	==	==
*-	*-	*-	*-	*-	*-	*-	*-	*-	*-	*-	*-
!!!system-decoration: [(s1,s2,s3,s4)]
!!!RDF**kern: > = above
!!!RDF**dynam: p = "p:"
!!!RDF**dynam: f = "f:"
!!!RDF**dynam: ff = "ff:"
!!!ENC: Marta Lawrence
!!!END: 2021-01-25
!!!ENC: Andrzej Gręziak
!!!END: 2021-01-21
